static/assets/images/addons/logos/perconaxtradbs.svg

<svg width="16" height="16" viewBox="0 0 16 16" fill="none" xmlns="http://www.w3.org/2000/svg">
<g clip-path="url(#clip0_703_2657)">
<path d="M4.94214 13.9038C5.0248 13.9709 5.11235 14.0318 5.20405 14.0859C5.40035 14.1487 5.6113 14.1487 5.8076 14.0859C6.15905 14.0362 6.48585 13.8768 6.74135 13.6305H6.525C6.32405 13.7031 6.11235 13.7416 5.8987 13.7443C5.7251 13.7491 5.55355 13.7058 5.40285 13.6194C5.2522 13.533 5.12825 13.4068 5.04465 13.2547L4.96492 13.118L4.8852 13.2318C4.57627 13.676 4.19066 14.0617 3.74646 14.3706L3.40484 14.4389C3.39049 14.451 3.37234 14.4576 3.3536 14.4576C3.33486 14.4576 3.31671 14.451 3.30236 14.4389C3.00615 14.2307 2.7246 14.0024 2.45969 13.7557C2.07833 13.4104 1.73129 13.0291 1.42343 12.617C1.20837 12.3117 1.01434 11.9921 0.84267 11.6604C0.645665 11.2543 0.485598 10.8312 0.364398 10.3964C0.288482 10.1231 0.220157 9.8498 0.159424 9.5765C0.068372 9.2032 0.0149638 8.8217 0 8.43775C0 8.1417 0 7.83425 0 7.52675C0.00768235 7.3209 0.0266902 7.1156 0.056937 6.91185C0.069439 6.75865 0.0922655 6.60645 0.125262 6.45635C0.125262 6.24 0.216361 6.02365 0.273299 5.80725C0.330236 5.5909 0.432723 5.27205 0.53521 5.01015C0.808135 4.28687 1.19234 3.61066 1.67395 3.00595C2.21174 2.33151 2.85371 1.7472 3.57565 1.27506C4.07928 0.953955 4.61326 0.68315 5.1699 0.46656C5.18895 0.455566 5.21055 0.449778 5.2325 0.449778C5.2545 0.449778 5.2761 0.455566 5.29515 0.46656C5.6451 0.72536 5.9492 1.04099 6.19475 1.40033C6.2227 1.43075 6.24575 1.46532 6.2631 1.50282C5.8643 1.63707 5.4822 1.81665 5.12435 2.03802L5.3521 1.9697C5.57985 1.91277 5.7962 1.84444 6.02395 1.81027C6.28805 1.77294 6.55435 1.75392 6.82105 1.75334C7.0145 1.74201 7.2084 1.74201 7.40185 1.75334C7.62 1.77419 7.83445 1.82397 8.03955 1.90138C8.4059 2.02753 8.7457 2.2206 9.0416 2.47075L9.65655 3.04012L9.73625 3.11983C9.8103 2.85928 9.8103 2.58326 9.73625 2.32271L9.964 2.44797C10.2134 2.62359 10.4359 2.83457 10.6244 3.07428C10.9422 3.45695 11.2171 3.87316 11.4444 4.31551L11.581 4.64574C11.6996 4.48395 11.7814 4.29823 11.8207 4.10154C11.86 3.90486 11.856 3.70195 11.8088 3.507H11.8998C12.1233 3.68818 12.3025 3.91797 12.4237 4.17886C12.5116 4.35885 12.573 4.55064 12.6059 4.74824C12.6572 5.01145 12.6572 5.2821 12.6059 5.54535L12.5148 5.9781C12.4103 5.6983 12.2559 5.43985 12.0593 5.2151L11.8885 5.0557V5.11265C12.0265 5.4298 12.1259 5.76245 12.1846 6.10335C12.2507 6.4796 12.2887 6.8602 12.2984 7.2421C12.3082 7.65665 12.2891 8.0714 12.2415 8.4833C12.2415 8.72625 12.2073 8.9654 12.139 9.2007C12.0681 9.5919 11.9535 9.97385 11.7974 10.3394C11.7291 10.4875 11.6494 10.6242 11.581 10.7608L11.7177 11.0227C11.775 11.1887 11.775 11.3691 11.7177 11.5351C11.6704 11.7466 11.5637 11.9402 11.4102 12.0932C11.3378 12.1775 11.2489 12.2462 11.1491 12.2951C11.0493 12.3441 10.9405 12.3722 10.8294 12.3778C10.6875 12.3637 10.5529 12.3083 10.4423 12.2184C10.1368 11.998 9.79315 11.8358 9.4288 11.7401C9.24455 11.6839 9.05175 11.6607 8.8594 11.6718L9.0644 11.7515C9.3714 11.8765 9.66835 12.025 9.9526 12.1956C10.0437 12.2521 10.1092 12.342 10.1348 12.4461C10.1416 12.4753 10.1425 12.5055 10.1376 12.5351C10.1327 12.5646 10.1219 12.5928 10.106 12.6182C10.0902 12.6436 10.0695 12.6656 10.0451 12.683C10.0208 12.7003 9.99315 12.7127 9.964 12.7194C9.82585 12.7451 9.6831 12.7165 9.56545 12.6397L9.2238 12.412L9.36045 12.5941C9.54995 12.8303 9.68245 13.107 9.74765 13.4027C9.8061 13.6127 9.79685 13.8358 9.7212 14.0402C9.6456 14.2446 9.5074 14.42 9.3263 14.5414H9.2466L9.30355 14.4162C9.35285 14.2736 9.3527 14.1185 9.3031 13.9759C9.25355 13.8333 9.1574 13.7116 9.03025 13.6305L8.82525 13.4824C8.98795 13.7276 9.0641 14.0202 9.0416 14.3137C8.99735 14.6006 8.87965 14.8713 8.7 15.0994H8.82525C9.1616 15.0419 9.4807 14.9096 9.75905 14.7122C10.0029 14.5366 10.1732 14.2771 10.2373 13.9834C10.2772 13.7919 10.2772 13.5942 10.2373 13.4027C10.2373 13.4027 10.2373 13.3116 10.2373 13.2774C10.2373 13.2432 10.3056 13.2774 10.3398 13.2205C10.4195 13.1871 10.4895 13.1341 10.5433 13.0665C10.597 12.9987 10.6328 12.9185 10.6473 12.8333C10.6473 12.8333 10.6473 12.8333 10.7156 12.8333H10.9775C11.2106 12.8438 11.4419 12.7872 11.6438 12.6701C11.8456 12.553 12.0096 12.3804 12.1162 12.1728C12.2457 11.9597 12.3164 11.7161 12.3212 11.4668C12.3349 11.2698 12.3077 11.0721 12.2415 10.8861C12.2361 10.8636 12.2361 10.8402 12.2415 10.8177C12.4327 10.4843 12.571 10.1232 12.6515 9.7473C12.7084 9.53095 12.7425 9.3032 12.7881 9.08685C12.8714 8.5751 12.8981 8.05575 12.8678 7.53815C12.8531 7.3167 12.8266 7.09625 12.7881 6.8777C12.7821 6.86525 12.7789 6.85165 12.7789 6.83785C12.7789 6.824 12.7821 6.8104 12.7881 6.79795C12.9158 6.56245 13.0188 6.31445 13.0955 6.0578C13.1976 5.7147 13.2324 5.35505 13.198 4.99875C13.1434 4.37168 12.8449 3.79105 12.3667 3.38174C12.1176 3.17224 11.8371 3.00315 11.5354 2.8807C11.5978 3.1119 11.5978 3.35551 11.5354 3.58671C11.2907 3.07868 10.9505 2.62248 10.5333 2.243C10.1538 1.86831 9.69995 1.57736 9.20105 1.38894C9.32625 1.56815 9.38285 1.7864 9.36045 2.00387L9.09855 1.86722C8.7588 1.62362 8.3703 1.45657 7.9598 1.37756C7.6502 1.33206 7.33565 1.33206 7.02605 1.37756C6.98135 1.38212 6.9364 1.37098 6.899 1.34604C6.8616 1.32111 6.83405 1.28394 6.82105 1.24091C6.6456 0.995055 6.44735 0.76629 6.2289 0.55766L5.9784 0.295749C7.13395 -0.0344081 8.3508 -0.089011 9.5313 0.136325C10.559 0.336309 11.5357 0.74203 12.4026 1.32911C13.2695 1.91618 14.0087 2.67249 14.5759 3.55256C15.5884 5.0444 16.0651 6.83545 15.9284 8.63325C15.7917 10.4311 15.0496 12.1294 13.8231 13.451C12.5967 14.7726 10.9584 15.6394 9.1758 15.9098C7.3932 16.1803 5.5716 15.8383 4.00838 14.94C4.37001 14.6435 4.68481 14.2942 4.94214 13.9038ZM7.7093 2.0608C7.2968 2.17601 6.9102 2.36929 6.57055 2.63017C6.10655 2.97158 5.78915 3.47614 5.68235 4.04221C5.597 4.37851 5.597 4.73078 5.68235 5.0671C5.7944 5.4397 6.0119 5.7719 6.30865 6.02365C6.6272 6.31035 7.02335 6.4965 7.4474 6.55885C7.6666 6.58735 7.8886 6.58735 8.10785 6.55885C8.338 6.5438 8.56455 6.4939 8.7797 6.4108C8.9889 6.34165 9.1781 6.2226 9.3309 6.06385C9.4837 5.9051 9.59545 5.7115 9.65655 5.4998C9.7418 5.26435 9.7418 5.00645 9.65655 4.77101C9.59595 4.6428 9.49865 4.53543 9.37705 4.46246C9.25545 4.38949 9.11495 4.35421 8.9733 4.36106C8.8079 4.37945 8.6485 4.43387 8.5064 4.52048L8.2217 4.67991H8.63165C8.80495 4.67815 8.97225 4.74343 9.09855 4.86211C9.1942 4.96845 9.25945 5.09855 9.2875 5.2388C9.31555 5.37905 9.30535 5.5243 9.258 5.65925C9.2098 5.86575 9.08845 6.0478 8.91635 6.17165C8.70405 6.3264 8.4501 6.41365 8.18755 6.4222C7.9007 6.45455 7.6108 6.39895 7.3563 6.26275C7.0579 6.10665 6.80935 5.8699 6.63885 5.5795C6.45845 5.2885 6.342 4.96244 6.29725 4.62297C6.24625 4.32909 6.24625 4.02863 6.29725 3.73475C6.4005 3.29843 6.63025 2.9023 6.9577 2.59601L7.28795 2.32271C7.1077 2.54835 6.9737 2.8073 6.8936 3.08475C6.8135 3.36222 6.78885 3.65274 6.82105 3.93972C6.8036 4.13785 6.83485 4.33723 6.91215 4.52048C6.99565 4.66377 7.11305 4.78439 7.254 4.87175C7.39495 4.95911 7.5552 5.01055 7.7207 5.02155C7.9357 5.0556 8.15475 5.0556 8.36975 5.02155H8.26725C8.055 5.00445 7.85175 4.92813 7.68065 4.80132C7.50955 4.67451 7.37745 4.50225 7.29935 4.30412C7.1712 4.01469 7.1278 3.69486 7.1741 3.38174C7.1917 2.9781 7.3133 2.58584 7.5271 2.243C7.5271 2.16329 7.65235 2.08358 7.7093 1.99248V2.0608ZM6.82105 12.9699C6.966 12.9998 7.10225 13.0621 7.21965 13.1522C7.31935 13.215 7.4011 13.3025 7.45695 13.4063C7.51285 13.51 7.5409 13.6265 7.5385 13.7443C7.52275 13.9491 7.45195 14.1459 7.3335 14.3137C7.15745 14.5542 6.93715 14.7591 6.6844 14.9172L7.2652 14.9969C7.5531 15.023 7.8433 14.9921 8.11925 14.9058C8.3723 14.8265 8.5898 14.6614 8.73415 14.4389L8.83665 14.2112C8.7096 14.385 8.53585 14.5192 8.3356 14.5983C8.2328 14.6318 8.12425 14.644 8.0166 14.6342C7.9089 14.6245 7.80435 14.5929 7.7093 14.5414L7.9598 14.4048C8.07095 14.2842 8.1492 14.1371 8.1871 13.9775C8.22495 13.818 8.2212 13.6515 8.17615 13.4938C8.1433 13.3886 8.08745 13.2922 8.01255 13.2114C7.9377 13.1306 7.84575 13.0676 7.74345 13.0269C7.4491 12.9138 7.1271 12.8939 6.82105 12.9699ZM2.68743 8.8477C2.55078 8.98435 2.39136 9.121 2.25471 9.28045C2.00789 9.53705 1.84505 9.86275 1.78782 10.2142C1.75943 10.403 1.75943 10.5949 1.78782 10.7836C1.8351 11.0213 1.93212 11.2464 2.07251 11.444C2.1848 11.6164 2.33202 11.7632 2.50464 11.875C2.67727 11.9868 2.87144 12.0611 3.0746 12.0932C3.15342 12.1101 3.23493 12.1101 3.31374 12.0932C3.03837 11.9412 2.80993 11.7168 2.65327 11.444C2.49042 11.1536 2.39325 10.831 2.36859 10.4989C2.31723 10.1745 2.31723 9.844 2.36859 9.51955C2.41467 9.2781 2.50336 9.04675 2.6305 8.8363L2.68743 8.8477ZM5.4318 7.80005H5.3521C5.14785 7.70025 4.97467 7.5467 4.85105 7.35595C4.78208 7.26005 4.73596 7.1497 4.71623 7.03325C4.69649 6.9168 4.70366 6.79735 4.73717 6.6841C4.74586 6.6335 4.76862 6.58635 4.80286 6.5481C4.83709 6.5098 4.88142 6.48195 4.93076 6.46775C4.97561 6.44795 5.0241 6.43775 5.0731 6.43775C5.1221 6.43775 5.1706 6.44795 5.21545 6.46775L5.4318 6.61575C5.59915 6.75715 5.79335 6.8633 6.0027 6.9279C6.2121 6.99245 6.43235 7.0141 6.65025 6.99155H6.9577C6.6281 6.95765 6.3116 6.84435 6.03535 6.6613L5.46595 6.24C5.364 6.1468 5.24285 6.0771 5.111 6.03575C4.9792 5.99445 4.83993 5.98255 4.70301 6.00085C4.57409 6.01275 4.45331 6.0691 4.36138 6.16025C4.23913 6.29075 4.16658 6.46005 4.15641 6.63855C4.13957 6.79125 4.16213 6.94575 4.22193 7.0873C4.28173 7.2288 4.37678 7.3527 4.49803 7.44705C4.70227 7.61635 4.94455 7.7336 5.20405 7.7887H5.4318V7.80005ZM5.7165 12.3551C5.5602 12.4059 5.39145 12.4032 5.2368 12.3476C5.08215 12.2919 4.95046 12.1863 4.86243 12.0476C4.74864 11.8781 4.70634 11.6706 4.74472 11.4702C4.7831 11.2697 4.89907 11.0926 5.0674 10.9771H4.91937C4.75707 11.0223 4.61093 11.1126 4.49802 11.2376C4.38512 11.3626 4.31008 11.5171 4.28167 11.6832C4.25598 11.8078 4.26235 11.9369 4.3002 12.0584C4.33804 12.1799 4.40612 12.2898 4.49803 12.3778C4.60282 12.4778 4.72919 12.5525 4.8674 12.596C5.0056 12.6394 5.15195 12.6505 5.29515 12.6284C5.37485 12.6284 5.37485 12.6284 5.37485 12.6284C5.36345 12.6885 5.36345 12.7503 5.37485 12.8105C5.40305 12.9249 5.4689 13.0265 5.5619 13.0988C5.6549 13.1711 5.7695 13.2099 5.8873 13.2091C6.05225 13.21 6.21545 13.175 6.36555 13.1066H6.47945C6.3033 13.1059 6.1305 13.0588 5.9784 12.9699C5.88335 12.9127 5.809 12.8266 5.766 12.7242C5.723 12.622 5.71365 12.5086 5.73925 12.4006C5.7337 12.3705 5.7337 12.3396 5.73925 12.3095L5.7165 12.3551ZM9.8843 7.80005C9.83635 7.85985 9.77215 7.90455 9.69945 7.92875C9.62675 7.953 9.5486 7.95575 9.47435 7.9367L9.09855 7.70895C8.8573 7.61265 8.58825 7.61265 8.347 7.70895C8.2356 7.74035 8.13385 7.79905 8.0509 7.8798H8.26725C8.42055 7.8845 8.57305 7.9036 8.72275 7.9367C8.76275 7.9496 8.7971 7.9759 8.8199 8.01115C8.84275 8.04645 8.8527 8.08855 8.84805 8.1303C8.8379 8.24065 8.8705 8.3507 8.93915 8.43775C8.9949 8.4946 9.06465 8.53585 9.14135 8.5573C9.21805 8.5788 9.29905 8.5798 9.37625 8.5602C9.45345 8.5406 9.52415 8.50115 9.58135 8.44565C9.6385 8.3902 9.68015 8.32075 9.7021 8.24415H9.81595C9.8375 8.3032 9.8723 8.3565 9.91775 8.39995C9.96315 8.4434 10.018 8.4758 10.0779 8.4947C10.2755 8.5708 10.4822 8.62055 10.6928 8.64275H11.0002L10.465 8.42635C10.3302 8.3781 10.2075 8.3012 10.1053 8.20095C10.0031 8.1007 9.92375 7.97945 9.8729 7.8456L9.8843 7.80005ZM11.376 11.8312L11.0572 11.5693C10.984 11.4785 10.8953 11.4015 10.7953 11.3415C10.7614 11.3184 10.7206 11.3074 10.6797 11.3103C10.6388 11.3131 10.6 11.3298 10.5697 11.3574C10.5394 11.3851 10.5193 11.4223 10.5127 11.4628C10.5061 11.5033 10.5134 11.5449 10.5333 11.5807L10.6587 11.7515C10.6898 11.7874 10.7283 11.8161 10.7715 11.8358C10.8147 11.8555 10.8617 11.8656 10.9092 11.8654H11.376V11.8312ZM11.0458 11.0796C10.9959 10.9646 10.9153 10.8655 10.813 10.7932C10.7105 10.7209 10.5901 10.6781 10.465 10.6697C10.397 10.6648 10.3287 10.6755 10.2655 10.7012C10.2023 10.7268 10.1459 10.7668 10.1006 10.8177C10.0513 10.8881 10.0184 10.9686 10.0047 11.0534C9.99085 11.1382 9.9964 11.225 10.021 11.3074C10.021 11.3757 10.021 11.4327 10.021 11.501C10.0254 11.4404 10.0254 11.3794 10.021 11.3188C10.021 11.2619 10.021 11.2049 10.021 11.148C10.054 11.0609 10.1165 10.9881 10.1977 10.9424C10.2788 10.8967 10.3734 10.8808 10.465 10.8975C10.6164 10.929 10.7598 10.9909 10.8864 11.0796H11.0458Z" fill="#1971BD"/>
</g>
<defs>
<clipPath id="clip0_703_2657">
<rect width="16" height="16" fill="white"/>
</clipPath>
</defs>
</svg>

<svg xmlns="http://www.w3.org/2000/svg" width="16" height="16" fill="none" xmlns:v="https://vecta.io/nano"><g clip-path="url(#A)"><path d="M4.942 13.904c.083.067.17.128.262.182a.99.99 0 0 0 .604 0c.351-.05.678-.209.934-.455h-.216c-.201.073-.413.111-.626.114-.174.005-.345-.039-.496-.125s-.275-.213-.358-.365l-.08-.137-.08.114c-.309.444-.695.83-1.139 1.139l-.342.068c-.014.012-.033.019-.051.019s-.037-.007-.051-.019c-.296-.208-.578-.437-.843-.683-.381-.345-.728-.727-1.036-1.139a8.23 8.23 0 0 1-.581-.957c-.197-.406-.357-.829-.478-1.264l-.205-.82A5.75 5.75 0 0 1 0 8.438v-.911c.008-.206.027-.411.057-.615.013-.153.035-.305.068-.456 0-.216.091-.433.148-.649a8.06 8.06 0 0 1 .262-.797c.273-.723.657-1.399 1.139-2.004a8.11 8.11 0 0 1 1.902-1.731A9.11 9.11 0 0 1 5.17.467c.019-.011.041-.017.063-.017s.044.006.063.017c.35.259.654.574.9.934a.4.4 0 0 1 .068.102 5.5 5.5 0 0 0-1.139.535l.228-.068.672-.159c.264-.037.53-.056.797-.057.193-.011.387-.011.581 0a2.47 2.47 0 0 1 .638.148 3.13 3.13 0 0 1 1.002.569l.615.569.08.08a1.46 1.46 0 0 0 0-.797l.228.125a3.14 3.14 0 0 1 .66.626c.318.383.593.799.82 1.241l.137.33c.119-.162.2-.348.24-.544a1.38 1.38 0 0 0-.012-.595h.091a1.89 1.89 0 0 1 .524.672c.088.18.149.372.182.569.051.263.051.534 0 .797l-.091.433c-.104-.28-.259-.538-.455-.763l-.171-.159v.057a4.32 4.32 0 0 1 .296.991c.066.376.104.757.114 1.139.01.415-.009.829-.057 1.241a2.56 2.56 0 0 1-.103.717 5.31 5.31 0 0 1-.342 1.139l-.216.421.137.262c.057.166.057.346 0 .512a1.14 1.14 0 0 1-.308.558.82.82 0 0 1-.581.285.73.73 0 0 1-.387-.159 3.06 3.06 0 0 0-1.013-.478 1.63 1.63 0 0 0-.569-.068l.205.08a6.46 6.46 0 0 1 .888.444.41.41 0 0 1 .182.25c.007.029.008.059.003.089s-.016.058-.032.083-.037.047-.061.065-.052.03-.081.036c-.138.026-.281-.003-.399-.08l-.342-.228.137.182a1.97 1.97 0 0 1 .387.809c.058.21.049.433-.026.638s-.214.38-.395.501h-.08l.057-.125a.67.67 0 0 0-.273-.786l-.205-.148a1.32 1.32 0 0 1 .216.831c-.044.287-.162.558-.342.786h.125a2.28 2.28 0 0 0 .934-.387 1.22 1.22 0 0 0 .478-.729c.04-.191.04-.389 0-.581v-.125c0-.034.068 0 .103-.057.08-.033.15-.086.204-.154s.089-.148.104-.233h.068.262a1.22 1.22 0 0 0 1.139-.66 1.41 1.41 0 0 0 .205-.706c.014-.197-.013-.395-.08-.581-.005-.023-.005-.046 0-.068.191-.333.329-.694.41-1.07.057-.216.091-.444.137-.66a7.07 7.07 0 0 0 .08-1.549c-.015-.221-.041-.442-.08-.66-.006-.012-.009-.026-.009-.04s.003-.027.009-.04a3.89 3.89 0 0 0 .307-.74c.102-.343.137-.703.103-1.059-.055-.627-.353-1.208-.831-1.617-.249-.21-.53-.379-.831-.501.062.231.062.475 0 .706-.245-.508-.585-.964-1.002-1.344-.38-.375-.833-.666-1.332-.854a.91.91 0 0 1 .159.615l-.262-.137a2.89 2.89 0 0 0-1.139-.49 3.21 3.21 0 0 0-.934 0c-.045.005-.09-.007-.127-.032s-.065-.062-.078-.105a4.8 4.8 0 0 0-.592-.683L5.978.296c1.156-.33 2.372-.385 3.553-.159 1.028.2 2.004.606 2.871 1.193s1.606 1.343 2.173 2.223a7.97 7.97 0 0 1-.753 9.898 7.97 7.97 0 0 1-9.815 1.489c.362-.296.676-.646.934-1.036zM7.709 2.061a3.35 3.35 0 0 0-1.139.569c-.464.341-.781.846-.888 1.412-.085.336-.085.689 0 1.025.112.373.33.705.626.957.319.287.715.473 1.139.535a2.56 2.56 0 0 0 .66 0c.23-.015.457-.065.672-.148.209-.069.398-.188.551-.347s.265-.352.326-.564a1.07 1.07 0 0 0 0-.729c-.061-.128-.158-.236-.279-.309s-.262-.108-.404-.101a1.14 1.14 0 0 0-.467.159l-.285.159h.41a.67.67 0 0 1 .467.182c.096.106.161.236.189.377a.8.8 0 0 1-.03.42c-.048.207-.17.389-.342.512a1.31 1.31 0 0 1-.729.251c-.287.032-.577-.023-.831-.159a1.8 1.8 0 0 1-.717-.683c-.18-.291-.297-.617-.342-.957-.051-.294-.051-.594 0-.888.103-.436.333-.832.66-1.139l.33-.273a2.2 2.2 0 0 0-.467 1.617 1.22 1.22 0 0 0 .091.581c.084.143.201.264.342.351s.301.139.467.15c.215.034.434.034.649 0h-.102a1.14 1.14 0 0 1-.968-.717c-.128-.289-.172-.609-.125-.922.018-.404.139-.796.353-1.139 0-.08.125-.159.182-.251v.068zM6.821 12.97a.98.98 0 0 1 .399.182.68.68 0 0 1 .237.254c.056.104.084.22.082.338a1.14 1.14 0 0 1-.205.569c-.176.24-.396.445-.649.603l.581.08c.288.026.578-.005.854-.091a1.14 1.14 0 0 0 .615-.467l.103-.228a1.14 1.14 0 0 1-.501.387c-.103.034-.211.046-.319.036s-.212-.041-.307-.093l.251-.137c.111-.121.189-.268.227-.427s.034-.326-.011-.484a.74.74 0 0 0-.433-.467 1.54 1.54 0 0 0-.922-.057zM2.687 8.848l-.433.433c-.247.257-.41.582-.467.934-.028.189-.028.381 0 .569a1.72 1.72 0 0 0 .285.66 1.47 1.47 0 0 0 1.002.649.57.57 0 0 0 .239 0 1.72 1.72 0 0 1-.66-.649c-.163-.29-.26-.613-.285-.945a3.13 3.13 0 0 1 0-.979c.046-.241.135-.473.262-.683l.057.011zM5.432 7.8h-.08a1.25 1.25 0 0 1-.501-.444c-.069-.096-.115-.206-.135-.323s-.013-.236.021-.349c.009-.051.031-.098.066-.136s.079-.066.128-.08c.045-.02.093-.03.142-.03s.098.01.142.03l.216.148a1.63 1.63 0 0 0 1.218.376h.307a2.05 2.05 0 0 1-.922-.33l-.569-.421c-.102-.093-.223-.163-.355-.204s-.271-.053-.408-.035a.56.56 0 0 0-.342.159c-.122.131-.195.3-.205.478a.9.9 0 0 0 .342.808 1.64 1.64 0 0 0 .706.342h.228V7.8zm.285 4.555a.74.74 0 0 1-.854-.308c-.114-.169-.156-.377-.118-.577s.154-.378.323-.493h-.148a.89.89 0 0 0-.638.706.75.75 0 0 0 .216.695c.105.1.231.175.369.218s.285.054.428.032h.08a.49.49 0 0 0 0 .182c.028.114.094.216.187.288s.208.111.325.11a1.14 1.14 0 0 0 .478-.102h.114a1 1 0 0 1-.501-.137c-.095-.057-.169-.143-.212-.246s-.052-.216-.027-.324c-.006-.03-.006-.061 0-.091l-.023.046zM9.884 7.8a.4.4 0 0 1-.41.137l-.376-.228c-.241-.096-.51-.096-.752 0-.111.031-.213.09-.296.171h.216a2.46 2.46 0 0 1 .455.057c.04.013.074.039.097.074s.033.077.028.119c-.01.11.022.22.091.307.056.057.126.098.202.12s.158.023.235.003.148-.059.205-.115.099-.125.121-.202h.114a.41.41 0 0 0 .262.251c.198.076.404.126.615.148H11l-.535-.216a.99.99 0 0 1-.592-.581l.011-.046zm1.492 4.031l-.319-.262a.99.99 0 0 0-.262-.228c-.034-.023-.075-.034-.116-.031s-.08.02-.11.047-.05.065-.057.105.001.082.021.118l.125.171a.33.33 0 0 0 .251.114h.467v-.034zm-.33-.752c-.05-.115-.13-.214-.233-.286s-.223-.115-.348-.123c-.068-.005-.136.006-.2.031s-.12.066-.165.117a.57.57 0 0 0-.08.49v.194a1.26 1.26 0 0 0 0-.182v-.171c.033-.087.095-.16.177-.206a.4.4 0 0 1 .267-.045 1.14 1.14 0 0 1 .421.182h.159z" fill="#1971bd"/></g><defs><clipPath id="A"><path fill="#fff" d="M0 0h16v16H0z"/></clipPath></defs></svg>
